dataset/fooyin/icon.svg

<?xml version="1.0" encoding="UTF-8" standalone="no"?>
<!-- Generator: Adobe Illustrator 26.0.2, SVG Export Plug-In . SVG Version: 6.00 Build 0)  -->

<svg
   version="1.0"
   id="Layer_1"
   x="0px"
   y="0px"
   viewBox="0 0 128 128"
   xml:space="preserve"
   width="128"
   height="128"
   xmlns:xlink="http://www.w3.org/1999/xlink"
   xmlns="http://www.w3.org/2000/svg"
   xmlns:svg="http://www.w3.org/2000/svg"><defs
   id="defs76"><linearGradient
     id="linearGradient7"><stop
       style="stop-color:#808080;stop-opacity:1;"
       offset="0"
       id="stop8" /><stop
       style="stop-color:#000000;stop-opacity:1;"
       offset="0.05"
       id="stop10" /><stop
       style="stop-color:#000000;stop-opacity:1;"
       offset="0.37"
       id="stop12" /><stop
       style="stop-color:#808080;stop-opacity:1;"
       offset="0.38999999"
       id="stop14" /><stop
       style="stop-color:#000000;stop-opacity:1;"
       offset="0.41999999"
       id="stop16" /><stop
       style="stop-color:#000000;stop-opacity:1;"
       offset="0.58999997"
       id="stop18" /><stop
       style="stop-color:#808080;stop-opacity:1;"
       offset="0.61000001"
       id="stop20" /><stop
       style="stop-color:#000000;stop-opacity:1;"
       offset="0.64000034"
       id="stop22" /><stop
       style="stop-color:#000000;stop-opacity:1;"
       offset="0.95999998"
       id="stop23" /><stop
       style="stop-color:#808080;stop-opacity:1;"
       offset="1"
       id="stop9" /></linearGradient><linearGradient
     id="linearGradient1"><stop
       style="stop-color:#808080;stop-opacity:1;"
       offset="0"
       id="stop1" /><stop
       style="stop-color:#000000;stop-opacity:1;"
       offset="0.03"
       id="stop5" /><stop
       style="stop-color:#000000;stop-opacity:1;"
       offset="0.97000003"
       id="stop7" /><stop
       style="stop-color:#808080;stop-opacity:1;"
       offset="1"
       id="stop2" /></linearGradient><linearGradient
     id="linearGradient7106"><stop
       style="stop-color:#000000;stop-opacity:1;"
       offset="0"
       id="stop7108" /><stop
       style="stop-color:#000000;stop-opacity:0;"
       offset="1"
       id="stop7110" /></linearGradient><linearGradient
     id="c"
     gradientUnits="userSpaceOnUse"
     x1="24.072048"
     x2="23.959682"
     y1="0.75082099"
     y2="46.056854"><stop
       offset="0"
       stop-color="#fff"
       id="stop3" /><stop
       offset="1"
       stop-color="#d9d9d9"
       id="stop4-6" /></linearGradient><linearGradient
     xlink:href="#c"
     id="linearGradient14"
     gradientUnits="userSpaceOnUse"
     x1="24.072048"
     y1="0.75082099"
     x2="23.959682"
     y2="46.056854"
     gradientTransform="matrix(2.4494296,0,0,2.4494296,5.21364,3.213677)" /><linearGradient
     xlink:href="#linearGradient7106"
     id="linearGradient15"
     gradientUnits="userSpaceOnUse"
     x1="29.203026"
     y1="24.827356"
     x2="34.121048"
     y2="29.224836"
     gradientTransform="matrix(2.9735842,0,0,2.9735842,-7.36607,-9.2893614)" /><linearGradient
     xlink:href="#linearGradient7106"
     id="linearGradient16"
     gradientUnits="userSpaceOnUse"
     x1="15.948756"
     y1="23.618279"
     x2="25.031786"
     y2="33.69899"
     gradientTransform="matrix(2.9735842,0,0,2.9735842,-7.36607,-9.2893614)" /><linearGradient
     xlink:href="#linearGradient7106"
     id="linearGradient17"
     gradientUnits="userSpaceOnUse"
     x1="21.990562"
     y1="33.780373"
     x2="29.320522"
     y2="41.931858"
     gradientTransform="matrix(2.9735842,0,0,2.9735842,-7.36607,-9.2893614)" /><linearGradient
     xlink:href="#linearGradient1"
     id="linearGradient2"
     x1="11.693271"
     y1="37.92539"
     x2="116.30809"
     y2="37.92539"
     gradientUnits="userSpaceOnUse" /><linearGradient
     xlink:href="#linearGradient7"
     id="linearGradient9"
     x1="21.342785"
     y1="91.926092"
     x2="106.65697"
     y2="91.926092"
     gradientUnits="userSpaceOnUse" /></defs>
<style
   type="text/css"
   id="style2">
	.st0{fill:url(#SVGID_1_);}
	.st1{fill:url(#SVGID_00000062171159965967627490000013605884846004172698_);}
	.st2{fill:url(#SVGID-2_00000085966066984138215510000013018799571900533434_);}
	.st3{clip-path:url(#SVGID_00000023257072852279316340000004281102206337855156_);}
	.st4{fill:url(#SVGID_00000177446033621631838710000001370584907163434138_);}
	.st5{clip-path:url(#SVGID_00000136385553608229244970000014654043435100792964_);}
	.st6{fill:url(#SVGID_00000126306410582640054500000000964390405037519506_);}
	.st7{fill:url(#SVGID_00000109020757643166282930000006684795936706346369_);}
</style>
<radialGradient
   id="SVGID_1_"
   cx="514.5"
   cy="477.5"
   r="496.5"
   gradientTransform="matrix(1,0,0,-1,-18,974)"
   gradientUnits="userSpaceOnUse">
	<stop
   offset="0.9134"
   style="stop-color:#000000"
   id="stop4" />
	<stop
   offset="1"
   style="stop-color:#000000;stop-opacity:0"
   id="stop6" />
</radialGradient>

<radialGradient
   id="SVGID_00000163033830155146975860000008434547654242457221_"
   cx="512.05908"
   cy="481.87881"
   r="486.27271"
   gradientTransform="matrix(0.11104257,0,0,-0.11104257,7.1350999,117.51141)"
   gradientUnits="userSpaceOnUse">
	<stop
   offset="0.99"
   style="stop-color:#FFFFFF"
   id="stop11" />
	<stop
   offset="0.9951"
   style="stop-color:#FDFDFD"
   id="stop13" />
	<stop
   offset="0.9969"
   style="stop-color:#F6F6F6"
   id="stop15" />
	<stop
   offset="0.9982"
   style="stop-color:#EBEBEB"
   id="stop17" />
	<stop
   offset="0.9992"
   style="stop-color:#DADADA"
   id="stop19" />
	<stop
   offset="1"
   style="stop-color:#C7C7C7"
   id="stop21" />
</radialGradient>

<radialGradient
   id="SVGID-2_00000052072577768947982130000002178866272689676469_"
   cx="512.06152"
   cy="481.87881"
   r="444.12241"
   gradientTransform="matrix(1,0,0,-1,-18,974)"
   gradientUnits="userSpaceOnUse">
	<stop
   offset="0.99"
   style="stop-color:#000000;stop-opacity:0.5"
   id="stop26" />
	<stop
   offset="1"
   style="stop-color:#000000;stop-opacity:0"
   id="stop28" />
</radialGradient>



<radialGradient
   id="SVGID_00000092427181212153090570000016417065628950216588_"
   cx="578.89008"
   cy="482.3703"
   r="353.94269"
   gradientTransform="matrix(0.11104257,0,0,-0.1218248,7.1350999,118.45626)"
   gradientUnits="userSpaceOnUse">
	<stop
   offset="0"
   style="stop-color:#C2C0C2"
   id="stop66" />
	<stop
   offset="1"
   style="stop-color:#EBEBEB"
   id="stop68" />
</radialGradient>

		
	
		
	
<path
   id="path18"
   style="fill:url(#linearGradient9);stroke-width:2.44943;fill-opacity:1;stroke:none"
   d="M 26.220703 63.851562 C 26.825625 66.282074 26.340528 67.90258 24.457031 68.060547 C 24.457031 68.060547 21.817543 64.661364 21.345703 64.888672 C 21.345703 64.888672 21.34075 68.677783 21.34375 68.847656 C 21.35715 69.571458 23.711245 71.314007 28.953125 76.029297 C 37.716655 83.912466 47.792787 101.27478 44.755859 103.03711 C 44.137999 103.39566 43.564196 101.02045 43.347656 101.48438 C 43.347656 101.48437 43.330463 105.20365 43.351562 105.63086 C 43.449702 107.61744 45.220567 109.9685 47.457031 111.06055 C 50.868514 112.72636 51.936941 114.16398 52.40625 115.73633 C 52.840533 117.19115 53.525475 118.92318 53.927734 119.58398 C 54.42629 120.40294 55.108248 120.02074 56.068359 118.38281 C 57.906392 115.24722 57.754952 115.30336 61.105469 116.51758 C 63.425146 117.35822 64.545204 117.36844 66.742188 116.57227 C 70.469693 115.22141 70.556055 115.24659 71.59375 117.98828 C 72.785338 121.13658 74.482047 120.43601 75.412109 116.41211 C 75.940914 114.12432 76.675262 112.94846 80.429688 111.11523 C 82.91546 109.90146 84.683251 107.53114 84.707031 105.55273 C 84.711005 105.22573 84.707031 101.48633 84.707031 101.48633 C 84.501635 101.02849 83.942427 103.44232 83.244141 103.03711 C 80.187844 101.26355 90.283329 83.912456 99.046875 76.029297 C 104.40693 71.20771 106.7475 69.49495 106.6543 68.800781 C 106.63276 68.640737 106.6543 64.882812 106.6543 64.882812 C 106.17467 64.68908 103.55273 68.052734 103.55273 68.052734 C 102.38039 67.353223 101.94425 65.872703 102.25977 63.851562 L 26.220703 63.851562 z "
   clip-path="none"
   mask="none" /><path
   id="path40"
   style="fill:url(#linearGradient2);stroke-width:2.44943;fill-opacity:1;opacity:1"
   d="M 26.220703 63.851562 L 102.25977 63.851562 C 102.75534 60.676952 105.1053 56.170206 109.37109 51.261719 C 114.93395 44.860753 116.38879 42.861535 116.30469 42.509766 C 116.28299 42.420048 116.30664 38.552734 116.30664 38.552734 C 114.92211 38.86584 113.69161 43.535643 108.51562 45.892578 C 103.33964 48.249516 103.40019 50.618737 92.214844 35.050781 C 81.029525 19.482823 81.025138 20.205241 81.621094 29.261719 C 82.217026 38.318197 80.775136 43.356295 77.113281 44.015625 C 73.451426 44.67495 72.31126 44.576566 68.367188 25.960938 C 64.423116 7.3453125 63.576884 7.3453125 59.632812 25.960938 C 55.688741 44.576566 54.548574 44.67495 50.886719 44.015625 C 47.224889 43.356295 45.782948 38.318197 46.378906 29.261719 C 46.974863 20.205241 46.970503 19.482823 35.785156 35.050781 C 24.599846 50.618737 24.660365 48.249516 19.484375 45.892578 C 14.308385 43.535643 13.073609 39.240707 11.693359 38.552734 C 11.693359 38.552734 11.697359 42.416604 11.693359 42.535156 C 11.679999 42.952737 13.191066 45.004607 18.628906 51.261719 C 22.630316 55.865985 25.408509 60.588254 26.220703 63.851562 z " /><path
   d="m 53.927907,115.58343 c -0.402259,-0.6608 -1.086683,-2.39177 -1.520966,-3.84659 -0.469309,-1.57235 -1.538979,-3.01106 -4.950467,-4.67686 -3.411464,-1.6658 -5.736974,-6.26126 -2.700044,-8.02359 3.036927,-1.76233 -7.04022,-19.12359 -15.80376,-27.006749 -8.76353,-7.883162 -9.45496,-7.456607 -4.63615,-7.853762 4.81884,-0.397151 1.29419,-8.881278 -5.68748,-16.91479 -6.98165,-8.033516 -7.49201,-9.132638 -6.61121,-8.744814 0.88077,0.387822 2.29115,1.019194 7.46714,3.376129 5.17599,2.356938 5.1156,4.727254 16.30091,-10.840702 11.185347,-15.567958 11.188675,-14.845988 10.592718,-5.78951 -0.595958,9.056478 0.846749,14.09478 4.508579,14.75411 3.661855,0.659325 4.802254,0.561027 8.746325,-18.054601 3.944072,-18.615625 4.788844,-18.615625 8.732915,0 3.944072,18.615628 5.084445,18.713926 8.7463,18.054601 3.661855,-0.65933 5.104536,-5.697632 4.508604,-14.75411 -0.595956,-9.056478 -0.592629,-9.778448 10.59269,5.78951 11.185349,15.567956 11.124939,13.19764 16.300929,10.840702 5.17599,-2.356935 6.58636,-2.988307 7.46715,-3.376129 0.88078,-0.387824 0.37042,0.711298 -6.61124,8.744814 -6.98165,8.033512 -10.50629,16.517639 -5.68747,16.91479 4.81883,0.397155 4.12742,-0.0294 -4.636125,7.853762 C 90.283707,79.9128 80.187173,97.26282 83.243464,99.03639 c 3.056316,1.77357 0.93987,6.24627 -2.814556,8.07951 -3.754426,1.83323 -4.488489,3.00934 -5.017294,5.29713 -0.930062,4.0239 -2.625811,4.72373 -3.817399,1.57543 -1.037695,-2.74169 -1.124887,-2.76714 -4.852392,-1.41628 -2.196983,0.79617 -3.317191,0.78514 -5.636868,-0.0555 -3.350517,-1.21422 -3.199051,-1.27031 -5.037084,1.86528 -0.960111,1.63793 -1.641408,2.02044 -2.139964,1.20148 z"
   fill="url(#c)"
   id="path2"
   style="fill:url(#linearGradient14);stroke-width:2.44943" /><path
   d="M 87.043775,57.939142 99.984596,71.466144 94.431084,76.603967 86.585849,88.06267 72.184642,73.976132 Z"
   fill="url(#b)"
   opacity="0.08"
   id="path3"
   style="fill:url(#linearGradient15);stroke-width:2.97358" /><path
   d="M 40.24973,68.002839 61.147262,88.80494 66.7772,83.5567 41.01311,57.88806 Z"
   fill="url(#d)"
   opacity="0.08"
   id="path11"
   style="fill:url(#linearGradient16);stroke-width:2.97358" /><path
   d="M 49.750606,66.223243 C 40.53017,56.062804 39.77977,55.966425 39.77977,62.406101 c 0,6.439673 -1.19359,5.402821 8.132078,9.24191 9.325669,3.839091 11.059172,4.73567 1.838758,-5.424768 z m 31.310686,4.863315 c 9.772261,-4.053955 6.775265,-2.271057 6.775265,-8.692641 0,-6.421584 -0.285894,-6.84325 -9.850846,3.697787 -9.564927,10.541045 -6.69668,9.048807 3.075581,4.994854 z"
   fill="#020202"
   stroke-width="18.689"
   id="path12" /><path
   d="m 51.16554,99.31422 13.718334,13.71835 11.813025,-3.73444 4.344153,-2.51503 L 75.93479,96.11327 65.5698,88.64439 Z"
   fill="url(#e)"
   opacity="0.08"
   id="path13"
   style="fill:url(#linearGradient17);stroke-width:2.97358" /><path
   d="m 63.826164,93.94592 c 2.825214,0.002 5.524807,4.36224 10.233965,5.70077 4.709157,1.33853 3.356997,-2.83571 0.407637,-4.73406 -2.949384,-1.89835 -6.473359,-6.61214 -10.641602,-6.56819 -1.166719,0.0123 -2.274642,0.36477 -3.332728,0.9187 -3.15902,1.65382 -5.873674,5.10347 -8.382146,6.65759 -3.348615,2.07465 -0.429954,5.21291 3.076156,3.85839 3.506111,-1.35452 5.561911,-5.83581 8.638718,-5.8332 z"
   stroke-width="18.689"
   id="path14" /></svg>

<svg xmlns="http://www.w3.org/2000/svg" xmlns:xlink="http://www.w3.org/1999/xlink" xml:space="preserve" width="128" height="128" viewBox="0 0 128 128"><defs><linearGradient id="h"><stop offset="0" style="stop-color:gray;stop-opacity:1"/><stop offset=".05" style="stop-color:#000;stop-opacity:1"/><stop offset=".37" style="stop-color:#000;stop-opacity:1"/><stop offset=".39" style="stop-color:gray;stop-opacity:1"/><stop offset=".42" style="stop-color:#000;stop-opacity:1"/><stop offset=".59" style="stop-color:#000;stop-opacity:1"/><stop offset=".61" style="stop-color:gray;stop-opacity:1"/><stop offset=".64" style="stop-color:#000;stop-opacity:1"/><stop offset=".96" style="stop-color:#000;stop-opacity:1"/><stop offset="1" style="stop-color:gray;stop-opacity:1"/></linearGradient><linearGradient id="g"><stop offset="0" style="stop-color:gray;stop-opacity:1"/><stop offset=".03" style="stop-color:#000;stop-opacity:1"/><stop offset=".97" style="stop-color:#000;stop-opacity:1"/><stop offset="1" style="stop-color:gray;stop-opacity:1"/></linearGradient><linearGradient id="f"><stop offset="0" style="stop-color:#000;stop-opacity:1"/><stop offset="1" style="stop-color:#000;stop-opacity:0"/></linearGradient><linearGradient id="a" x1="24.072" x2="23.96" y1=".751" y2="46.057" gradientUnits="userSpaceOnUse"><stop offset="0" stop-color="#fff"/><stop offset="1" stop-color="#d9d9d9"/></linearGradient><linearGradient xlink:href="#a" id="k" x1="24.072" x2="23.96" y1=".751" y2="46.057" gradientTransform="translate(5.214 3.214)scale(2.44943)" gradientUnits="userSpaceOnUse"/><linearGradient xlink:href="#f" id="l" x1="29.203" x2="34.121" y1="24.827" y2="29.225" gradientTransform="translate(-7.366 -9.29)scale(2.97358)" gradientUnits="userSpaceOnUse"/><linearGradient xlink:href="#f" id="m" x1="15.949" x2="25.032" y1="23.618" y2="33.699" gradientTransform="translate(-7.366 -9.29)scale(2.97358)" gradientUnits="userSpaceOnUse"/><linearGradient xlink:href="#f" id="n" x1="21.991" x2="29.321" y1="33.78" y2="41.932" gradientTransform="translate(-7.366 -9.29)scale(2.97358)" gradientUnits="userSpaceOnUse"/><linearGradient xlink:href="#g" id="j" x1="11.693" x2="116.308" y1="37.925" y2="37.925" gradientUnits="userSpaceOnUse"/><linearGradient xlink:href="#h" id="i" x1="21.343" x2="106.657" y1="91.926" y2="91.926" gradientUnits="userSpaceOnUse"/></defs><path d="M26.22 63.852c.606 2.43.12 4.05-1.763 4.209 0 0-2.64-3.4-3.111-3.172 0 0-.005 3.789-.002 3.959.013.723 2.367 2.466 7.61 7.181 8.763 7.883 18.839 25.246 15.802 27.008-.618.359-1.192-2.017-1.408-1.553 0 0-.018 3.72.004 4.147.098 1.986 1.869 4.338 4.105 5.43 3.412 1.665 4.48 3.103 4.95 4.675.434 1.455 1.118 3.187 1.52 3.848.5.819 1.181.437 2.141-1.201 1.838-3.136 1.687-3.08 5.037-1.865 2.32.84 3.44.85 5.637.054 3.728-1.35 3.814-1.325 4.852 1.416 1.191 3.149 2.888 2.448 3.818-1.576.529-2.288 1.263-3.464 5.018-5.297 2.485-1.214 4.253-3.584 4.277-5.562.004-.327 0-4.067 0-4.067-.205-.458-.765 1.956-1.463 1.551-3.056-1.773 7.04-19.125 15.803-27.008 5.36-4.821 7.7-6.534 7.607-7.228-.021-.16 0-3.918 0-3.918-.48-.194-3.101 3.17-3.101 3.17-1.173-.7-1.609-2.18-1.293-4.201z" style="fill:url(#i);stroke-width:2.44943;fill-opacity:1;stroke:none"/><path d="M26.22 63.852h76.04c.495-3.175 2.845-7.682 7.111-12.59 5.563-6.401 7.018-8.4 6.934-8.752-.022-.09.002-3.957.002-3.957-1.385.313-2.615 4.983-7.791 7.34S103.4 50.619 92.215 35.05s-11.19-14.846-10.594-5.79-.846 14.095-4.508 14.755c-3.662.659-4.802.56-8.746-18.055-3.944-18.616-4.79-18.616-8.734 0s-5.084 18.714-8.746 18.055c-3.662-.66-5.104-5.698-4.508-14.754.596-9.057.592-9.78-10.594 5.789S24.66 48.25 19.485 45.893c-5.177-2.357-6.411-6.652-7.792-7.34 0 0 .004 3.864 0 3.982-.013.418 1.498 2.47 6.936 8.727 4.001 4.604 6.78 9.326 7.592 12.59" style="fill:url(#j);stroke-width:2.44943;fill-opacity:1;opacity:1"/><path fill="url(#a)" d="M53.928 115.583c-.402-.66-1.087-2.391-1.521-3.846-.47-1.573-1.539-3.011-4.95-4.677s-5.738-6.261-2.7-8.024c3.036-1.762-7.04-19.123-15.804-27.006-8.764-7.884-9.455-7.457-4.636-7.854 4.818-.397 1.294-8.881-5.688-16.915s-7.492-9.133-6.611-8.745c.88.388 2.291 1.02 7.467 3.376 5.176 2.357 5.116 4.728 16.3-10.84 11.186-15.568 11.19-14.846 10.594-5.79s.846 14.095 4.508 14.754c3.662.66 4.802.561 8.747-18.054 3.944-18.616 4.788-18.616 8.732 0 3.944 18.615 5.085 18.714 8.747 18.054 3.662-.659 5.104-5.697 4.508-14.754s-.592-9.778 10.593 5.79 11.125 13.197 16.3 10.84c5.177-2.357 6.587-2.988 7.468-3.376.88-.388.37.712-6.611 8.745-6.982 8.034-10.506 16.518-5.688 16.915 4.82.397 4.128-.03-4.636 7.854-8.763 7.883-18.86 25.233-15.804 27.006 3.057 1.774.94 6.247-2.814 8.08s-4.489 3.01-5.017 5.297c-.93 4.024-2.626 4.724-3.818 1.575-1.037-2.741-1.125-2.767-4.852-1.416-2.197.796-3.317.785-5.637-.055-3.35-1.215-3.2-1.27-5.037 1.865-.96 1.638-1.642 2.02-2.14 1.201" style="fill:url(#k);stroke-width:2.44943"/><path fill="url(#b)" d="m87.044 57.94 12.94 13.526-5.553 5.138-7.845 11.459-14.401-14.087Z" opacity=".08" style="fill:url(#l);stroke-width:2.97358"/><path fill="url(#d)" d="m40.25 68.003 20.897 20.802 5.63-5.248-25.764-25.669Z" opacity=".08" style="fill:url(#m);stroke-width:2.97358"/><path fill="#020202" d="M49.75 66.223c-9.22-10.16-9.97-10.257-9.97-3.817s-1.194 5.403 8.132 9.242 11.059 4.736 1.839-5.425m31.311 4.864c9.773-4.054 6.776-2.271 6.776-8.693s-.286-6.843-9.851 3.698c-9.565 10.54-6.697 9.049 3.075 4.995"/><path fill="url(#e)" d="m51.166 99.314 13.718 13.719 11.813-3.735 4.344-2.515-5.106-10.67-10.365-7.469Z" opacity=".08" style="fill:url(#n);stroke-width:2.97358"/><path d="M63.826 93.946c2.825.002 5.525 4.362 10.234 5.7 4.71 1.34 3.357-2.835.408-4.733-2.95-1.899-6.474-6.613-10.642-6.569-1.167.013-2.274.365-3.333.92-3.159 1.653-5.873 5.103-8.382 6.657-3.348 2.074-.43 5.213 3.076 3.858s5.562-5.836 8.64-5.833"/></svg>
